X: 296
U:~=!turn!
M:C
L:1/8
K:Bb
d/e/ | f2 dB b2 fd | e2 dB Acc d/e/ | f2 dB b2 fd | e2 cf dBB d/e/ | !p!f2 dB b2 fd | e2 dB Acc d/e/ | !f!f2 dB g2 a2 | b2 cf dBB ||


